!!!COM: Louise Reichardt
!!!CNT: Deutsch
!!!TXO: Deutsch
!!!OTL: Der Ma2dchen am Ufer
!!!LYR: Conz
!!!OPR: 
!!!OPS: No opus information available
!!!ONM: No. 32
!!!ENC: Ben Fuhrman
!!!YOR: Louise Reichardt: Songs
!!!YOR: New York, Da Capo Press, 1981
!!!ODT: 1800 - 1826
!!NB: Only vocal melody encoded.
!!NB: First instance of melodic material only encoded.
!!created: 2/19/10 1:40PM
!!proofed and posted: 2/19/10 1:40PM
**kern	**silbe
*clef G2	*
*k[b-e-a-d-]	*
*M6/8	*
*MM[Im ma2ssinger Bewegung]	*
=1	=1
4.r	.
4r	.
{8e-	{Es
=2	=2
8.e-	singt
16f	|
8e-	ein
8e-	Vo2g-
8a-	|
8cc	-lein
=3	=3
4cc	"Witt,
8b-	witt,
4b-	witt,
(8e-	Komm
=4	=4
ccq)	|
4.cc	mit
4.ee-	komm
=5	=5
4.a-}	mit"}
4r	.
{8cc	{O
=6	=6
8.cc	ko2nnt
16dd-	|
8cc	ich
8cc	Vo2g-
8b-	|
8g	-lein
=7	=7
4b-	mit
8a-	dir
4f	ziehn
8cc	wir
=8	=8
8.cc	woll-
16dd-	|
8cc	-ten
8gg	u2-
8een	-ber
8b-	die
=9	=9
4b-	Ber-
8a-	-ge
8a-}	fliehn,}
{8a-	{durch
8a-	die
=10	=10
4a-	blau-
8a-	-en
8ff	scho2-
8ee-	|
8dd-	-nen
=11	=11
8.dd-	Lu2f-
16cc	-te
8ee-	zu-
4a-	-mal
8a-	zu
=12	=12
8.a-	ba-
16b-	-den
8a-	im
8aa-	War-
gg-q	|
8ff	|
ee-q	-men
!! The following note has been changed from a quarter to an eighth in order to correct the metric problems in the manuscript. -Fuhrman
8dd-	|
=13	=13
8dd-	Son-
8cc	|
8b-	-nen-
4a-}	-strahl,}
{8g-	{die
=14	=14
4f	Erd'
8f	ist
4g-	eng,
8f	der
=15	=15
4cc	Him-
8ff	-mel
[4.dd-	weit
=16	=16
4dd-]	|
8f	die
4f	Erd'
8f	ist
=17	=17
4g-	arm,
8f	hat
[4.ff	nichts
=18	=18
8ff]	|
8ee-	|
8cc	als
4dd-}	Lied}
{8dd-	{der
=19	=19
4.dd-	Him-
4a-	-mel,
8a-	der
=20	=20
[4.ff	Him-
8ff]	|
8ee-	-mel
8dd-	ist
=21	=21
4.b-	weit,
8.b-	hat
16gg-	|
16ff	|
16ee-	|
=22	=22
4.dd-	nichts
4.cc	als
=23	=23
[4.aa-	Freud!
8aa-]	|
8gg-	|
8ee-	hat
=24	=24
4.dd-S	nichts
ffq	als
4.ee-	|
=25	=25
[4.dd-	Freud.
4dd-]}	|}
8r	.
=26	=26
4.r	.
4r	.
{8e-	{Das
=27	=27
8.e-	Vo2g-
16f	|
8e-	-lein
8e-	hat
8a-	sich
8cc	ge-
=28	=28
4ee-	-schwun-
8dd-	-gen,
4b-	schon
8e-	durch
=29	=29
8.e-	wir-
16f	-blend
8e-	die
8e-	Luft
8a-	mit
8cc	dem
=30	=30
16ee-	su2s-
16cc	|
16aa-	|
16ee-	|
16cc	-sen
16a-	|
4g}	Ton,}
{8cc	{O
=31	=31
4cc	Vo2g-
8f	-lein,
8fS	dass
8dd-	|
8cc	dich
=32	=32
4cc	Gott
8en	be-
4en	-hu2t!
8en	Da
=33	=33
8.f	sitz'
16en	ich
!! The following note has been changed from a quarter to an eighth in order to correct the metric error in the manuscript. -Fuhrman
8f	am
8a-	U-
8g	-fer
8f	und
=34	=34
[4.cc	kann
4cc]	|
8en	nicht
=35	=35
4.f}	mit.}
4.r	.
==	==
*-	*-
